nextcloudappstore/core/static/assets/img/icons/categories/magnify-white.svg

<svg width="20" height="20" fill="none" style="-webkit-print-color-adjust:exact" version="1.1" viewBox="-0 0 20 20" xmlns="http://www.w3.org/2000/svg"><g rx="0" ry="0" fill="#000"><g class="fills"><path rx="0" ry="0" d="m7.917 2.5c2.991 0 5.416 2.425 5.416 5.417 0 1.341-0.491 2.575-1.3 3.525l0.225 0.225h0.659l4.166 4.166-1.25 1.25-4.166-4.166v-0.659l-0.225-0.225c-0.95 0.809-2.184 1.3-3.525 1.3-2.992 0-5.417-2.425-5.417-5.416 0-2.992 2.425-5.417 5.417-5.417zm0 1.667c-2.084 0-3.75 1.666-3.75 3.75 0 2.083 1.666 3.75 3.75 3.75 2.083 0 3.75-1.667 3.75-3.75 0-2.084-1.667-3.75-3.75-3.75z" fill="#fff"/></g></g></svg>

<svg xmlns:xlink="http://www.w3.org/1999/xlink" width="20" xmlns="http://www.w3.org/2000/svg" height="20" id="screenshot-db15cf86-6f9e-8025-8002-bbab9ed6fdd4" viewBox="-0 0 20 20" style="-webkit-print-color-adjust: exact;" fill="none" version="1.1"><g id="shape-db15cf86-6f9e-8025-8002-bbab9ed6fdd4" rx="0" ry="0" style="fill: rgb(0, 0, 0);"><g id="shape-db15cf86-6f9e-8025-8002-bbab9ed6fdd6"><g class="fills" id="fills-db15cf86-6f9e-8025-8002-bbab9ed6fdd6"><path rx="0" ry="0" d="M7.917,2.500C10.908,2.500,13.333,4.925,13.333,7.917C13.333,9.258,12.842,10.492,12.033,11.442L12.258,11.667L12.917,11.667L17.083,15.833L15.833,17.083L11.667,12.917L11.667,12.258L11.442,12.033C10.492,12.842,9.258,13.333,7.917,13.333C4.925,13.333,2.500,10.908,2.500,7.917C2.500,4.925,4.925,2.500,7.917,2.500ZM7.917,4.167C5.833,4.167,4.167,5.833,4.167,7.917C4.167,10.000,5.833,11.667,7.917,11.667C10.000,11.667,11.667,10.000,11.667,7.917C11.667,5.833,10.000,4.167,7.917,4.167ZZ" style="fill: rgb(255, 255, 255); fill-opacity: 1;"/></g></g></g></svg>
